src/icons/groups.svg

<svg xmlns="http://www.w3.org/2000/svg" width="24" height="24"><path fill="none" d="M0 0h24v24H0z"/><path fill="currentcolor" d="M4 13a2 2 0 0 0 2-2c0-1.1-.9-2-2-2s-2 .9-2 2 .9 2 2 2zm1.13 1.1a6.98 6.98 0 0 0-3.91.48A2.01 2.01 0 0 0 0 16.43V18h4.5v-1.61c0-.83.23-1.61.63-2.29zM20 13a2 2 0 0 0 2-2c0-1.1-.9-2-2-2s-2 .9-2 2 .9 2 2 2zm4 3.43c0-.81-.48-1.53-1.22-1.85a6.95 6.95 0 0 0-3.91-.48c.4.68.63 1.46.63 2.29V18H24v-1.57zm-7.76-2.78a10.44 10.44 0 0 0-8.48 0A2.99 2.99 0 0 0 6 16.39V18h12v-1.61c0-1.18-.68-2.26-1.76-2.74zM8.07 16c.09-.23.13-.39.91-.69a8.25 8.25 0 0 1 6.04 0c.77.3.81.46.91.69H8.07zM12 8c.55 0 1 .45 1 1s-.45 1-1 1-1-.45-1-1 .45-1 1-1m0-2a3 3 0 1 0 0 6 3 3 0 0 0 0-6z"/></svg>

<svg xmlns="http://www.w3.org/2000/svg" enable-background="new 0 0 24 24" height="24" viewBox="0 0 24 24" width="24">
  <rect fill="none" height="24" width="24" />
  <g>
    <path fill="currentcolor" d="M4,13c1.1,0,2-0.9,2-2c0-1.1-0.9-2-2-2s-2,0.9-2,2C2,12.1,2.9,13,4,13z M5.13,14.1C4.76,14.04,4.39,14,4,14 c-0.99,0-1.93,0.21-2.78,0.58C0.48,14.9,0,15.62,0,16.43V18l4.5,0v-1.61C4.5,15.56,4.73,14.78,5.13,14.1z M20,13c1.1,0,2-0.9,2-2 c0-1.1-0.9-2-2-2s-2,0.9-2,2C18,12.1,18.9,13,20,13z M24,16.43c0-0.81-0.48-1.53-1.22-1.85C21.93,14.21,20.99,14,20,14 c-0.39,0-0.76,0.04-1.13,0.1c0.4,0.68,0.63,1.46,0.63,2.29V18l4.5,0V16.43z M16.24,13.65c-1.17-0.52-2.61-0.9-4.24-0.9 c-1.63,0-3.07,0.39-4.24,0.9C6.68,14.13,6,15.21,6,16.39V18h12v-1.61C18,15.21,17.32,14.13,16.24,13.65z M8.07,16 c0.09-0.23,0.13-0.39,0.91-0.69c0.97-0.38,1.99-0.56,3.02-0.56s2.05,0.18,3.02,0.56c0.77,0.3,0.81,0.46,0.91,0.69H8.07z M12,8 c0.55,0,1,0.45,1,1s-0.45,1-1,1s-1-0.45-1-1S11.45,8,12,8 M12,6c-1.66,0-3,1.34-3,3c0,1.66,1.34,3,3,3s3-1.34,3-3 C15,7.34,13.66,6,12,6L12,6z" />
  </g>
</svg>
